svg/shop_garden_centre-11.svg

<?xml version="1.0" encoding="UTF-8" standalone="no"?>
<!-- Created with Inkscape (http://www.inkscape.org/) -->

<svg
   xmlns:dc="http://purl.org/dc/elements/1.1/"
   xmlns:cc="http://creativecommons.org/ns#"
   xmlns:rdf="http://www.w3.org/1999/02/22-rdf-syntax-ns#"
   xmlns:svg="http://www.w3.org/2000/svg"
   xmlns="http://www.w3.org/2000/svg"
   xmlns:sodipodi="http://sodipodi.sourceforge.net/DTD/sodipodi-0.dtd"
   xmlns:inkscape="http://www.inkscape.org/namespaces/inkscape"
   version="1.1"
   width="11"
   height="11"
   viewBox="0 0 11 11"
   id="svg2"
   inkscape:version="0.91 r13725"
   sodipodi:docname="shop_garden_centre-11.svg">
  <sodipodi:namedview
     pagecolor="#ffffff"
     bordercolor="#666666"
     borderopacity="1"
     objecttolerance="10"
     gridtolerance="10"
     guidetolerance="10"
     inkscape:pageopacity="0"
     inkscape:pageshadow="2"
     inkscape:window-width="924"
     inkscape:window-height="480"
     id="namedview7"
     showgrid="false"
     fit-margin-top="0"
     fit-margin-left="0"
     fit-margin-right="0"
     fit-margin-bottom="0"
     inkscape:zoom="16.857143"
     inkscape:cx="5.5"
     inkscape:cy="5.5"
     inkscape:window-x="0"
     inkscape:window-y="27"
     inkscape:window-maximized="0"
     inkscape:current-layer="svg2" />
  <defs
     id="defs3053" />
  <metadata
     id="metadata8">
    <rdf:RDF>
      <cc:Work
         rdf:about="">
        <dc:format>image/svg+xml</dc:format>
        <dc:type
           rdf:resource="http://purl.org/dc/dcmitype/StillImage" />
        <dc:title></dc:title>
      </cc:Work>
    </rdf:RDF>
  </metadata>
  <rect
     width="11"
     height="11"
     x="0"
     y="0"
     id="canvas"
     style="visibility:hidden;fill:none;stroke:none" />
  <path
     d="M 7.8571429,0.7857143 C 6.2866296,0.732087 4.3319378,1.8787368 4.7142857,4.7142857 L 5.3039005,7.0714286 2.7809285,5.5 2.7460211,3.9285714 2.1176119,3.1428571 C 1.5714286,3.1428571 0,4.9924224 0,5.6960995 L 1.0260846,6.2857143 2.3571429,6.0527638 6.2857143,11 c 1.245912,0 2.2286037,0 3.4745157,0 L 11,4.7142857 C 11,0.7857143 8.3967455,0.8041397 7.8571429,0.7857143 Z m 0,1.0989471 C 9.428571,1.8997834 10.214286,3.1428571 9.845776,4.7142857 l -3.9404159,0 C 5.5,3.1428571 5.8619287,1.8846614 7.8571429,1.8846614 Z"
     id="garden_centre"
     style="fill:#000000;fill-opacity:1;fill-rule:evenodd;stroke:none"
     inkscape:connector-curvature="0" />
</svg>

<svg xmlns="http://www.w3.org/2000/svg" width="11" height="11">
    <path visibility="hidden" fill="none" d="M0 0h11v11H0z"/>
    <path d="M7.857.786C6.287.732 4.332 1.879 4.714 4.714l.59 2.357L2.78 5.5l-.035-1.571-.628-.786C1.57 3.143 0 4.993 0 5.696l1.026.59 1.331-.233L6.286 11H9.76L11 4.714C11 .786 8.397.804 7.857.786zm0 1.099c1.572.015 2.357 1.258 1.989 2.83h-3.94c-.406-1.572-.044-2.83 1.951-2.83z" fill-rule="evenodd"/>
</svg>
